X: 41254
T: Tryst Stane
R: jig
M: 6/8
K: Gmajor
dBG A3|ABG AGE|DEG A3|BGB AGE|
dBG A3|ABG AGE|DEG A3|AGF G3:|
GBd g3|eBB dBB|A3 BAB|GBA GED|
GBd g3|eBB dBB|A3 BAB|GBD g3:|

